res/skins/LateNight/palemoon/buttons/btn__beats_earlier_active.svg

<svg width="24" height="24" version="1.1" xmlns="http://www.w3.org/2000/svg">
  <path d="m9 3v3h13v2h-13v3l-7-4z" fill="#000001"/>
  <g fill="#000001">
    <path d="m15 21h-2v-12h2z"/>
    <path d="m7 21h2v-9h-2z"/>
    <path d="m15 5h-2v-2h2z"/>
    <path d="m21 21h-2v-12h2z"/>
    <path d="m21 5h-2v-2h2z"/>
  </g>
</svg>

<?xml version="1.0" encoding="UTF-8" standalone="no"?>
<svg
   xmlns:dc="http://purl.org/dc/elements/1.1/"
   xmlns:cc="http://creativecommons.org/ns#"
   xmlns:rdf="http://www.w3.org/1999/02/22-rdf-syntax-ns#"
   xmlns:svg="http://www.w3.org/2000/svg"
   xmlns="http://www.w3.org/2000/svg"
   id="svg16"
   version="1.1"
   height="24"
   width="24">
  <metadata
     id="metadata22">
    <rdf:RDF>
      <cc:Work
         rdf:about="">
        <dc:format>image/svg+xml</dc:format>
        <dc:type
           rdf:resource="http://purl.org/dc/dcmitype/StillImage" />
        <dc:title></dc:title>
      </cc:Work>
    </rdf:RDF>
  </metadata>
  <defs
     id="defs20" />
  <path
     style="fill:#000001;fill-opacity:1"
     id="path4"
     fill="#a89a8c"
     d="M 9,3 V 6 L 22,6 V 8 L 9,8 v 3 L 2,7 Z" />
  <g
     style="fill-opacity:1;fill:#000001"
     id="g838">
    <path
       style="fill-opacity:1;fill:#000001"
       d="m15 21h-2v-12h2z"
       fill="#888"
       id="path2" />
    <path
       style="fill:#000001;fill-opacity:1"
       id="path6"
       d="M 7,21 H 9 V 12 H 7 Z" />
    <path
       style="fill:#000001;fill-opacity:1"
       id="path8"
       d="M 15,5 H 13 V 3 h 2 z" />
    <path
       style="fill:#000001;fill-opacity:1"
       id="path10"
       d="M 21,21 H 19 V 9 h 2 z" />
    <path
       style="fill:#000001;fill-opacity:1"
       id="path12"
       d="M 21,5 H 19 V 3 h 2 z" />
  </g>
</svg>
